X: 21837
T: Kip's
R: jig
M: 6/8
K: Aminor
|:E|A3 cBA|ece aec|A3 cEE|E^DE =dcB|
A3 cBA|ece aec|fga ecA|dcB A2:|
K: Amaj
|:a|aga fga|g/a/ba gfe|aga fga|bag a2 g|
agf edc|fed cBA|aga edc|dcB A2:|

